X:1
T:Title
%%score { 1 | 2 }
L:1/8
Q:1/4=100
M:2/4
K:Bb
V:1 treble nm="Grand Piano"
V:2 bass 
V:1
 D[CE] [DF][EG] | [DF]2 [DB]2 | dd cB | c4 | D[CE] [DF][EG] | [DF]2 [DB]2 | cc BA | [FB]4 | cc Bc | %9
w: Joseph~Garrison * * *|||||||||
 [Bd]2 [FB]2 | [Fc][Fc] [FB][Fd] | c4 | D[CE] [DF][FB] | [Fd]2 [FB]2 | cB/c/ dc | [DB]4 |] %16
w: |||||||
V:2
 [B,,B,][B,,B,] [B,,B,][B,,B,] | [B,,B,]2 [B,,B,]2 | [F,B,F][F,B,F] [F,A,F][G,D] | [F,A,F]4 | %4
 [B,,B,][B,,B,] [B,,B,][B,,B,] | [B,,B,]2 [B,,B,]2 | [F,CF][F,CF] [F,B,F][F,CF] | [B,,B,]4 | %8
 [F,A,F][F,A,F] [F,B,F][F,CF] | [B,,B,]2 [B,,B,]2 | [F,A,][E,A,] [D,B,][B,,B,] | [F,A,F]4 | %12
 [B,,B,][B,,B,] [B,,B,][B,,B,] | [B,,B,]2 [B,,B,]2 | [F,A,F][F,B,F]/[F,CF]/ [F,DF][F,A,E] | %15
 [B,,B,]4 |] %16

